!!!SOCIAL_FUNCTION:	deer dance songs
!!!PDT:	1932
!!!OTL: No_73_The_Dance_of_the_Blackbirds_is_Completed.krn
!!!REG: Southwest
!!!LANG: Non-Tone
!!!LING_GROUP: Yuman-Cochimi
**kern
*staff1
=1-
*clefF4
*k[f#c#]
*M2/4
4r
8.r
16d\
=2
4d\
8.d\L
16d\Jk
=3
4d\
8.d\L
16B\Jk
=4||
*M3/4
4d\
4r
8.r
16d\
=5!|:
*M2/4
2e\
=6
4d\
8.cn\L
16A\Jk
=7
4A\
4A\
=8
4cn\
8A\L
8A\J
=9
8.A\L
16F#\Jk
4A\
=10||
*M3/4
4A\
4r
8.r
16A\
=11||
*M2/4
4.d\
8B\
=12
4d\
8.d\L
16A\Jk
=13
4cn\
4A\
=14
4cn\
8.A\L
16A\Jk
=15
4A\
4r
=16
4cn\
8.A\L
16A\Jk
=17
4A\
4A\
=18
16A\LK
8.A\J
8.A\L
16F#\Jk
=19
4A\
8.A\L
16F#\Jk
=20||
*M3/4
4A\
4r
8.r
16A\
=21||
*M2/4
2A\
=22
4A\
8A\
8r
=23
2A\
=24
8A\L
8A\J
8A\
8r
=25
4A\
4A\
=26||
*M3/4
4A\
4r
8.r
16A\
=27||
*M2/4
(4A\
4e\)
=28
4e\
4d\
=29
4d\
4d\
=30
8e\L
8d\J
8d\L
8B\J
=31
4d\
8d\L
8B\J
=32
4d\
8.r
16d\
=33:|!
4A\
4r
==
*-
